X:1
T:Merry, Merry Chiming Bells
T:George Edgar Oliver, before 1904
T:Merry, Merry Chiming Bells
T:Public Domain
T:Public Domain
C:George Edgar Oliver, before 1904
Z:Public Domain
%%score ( 1 2 ) 3
L:1/8
M:4/4
K:A
V:1 treble 
V:2 treble 
V:3 bass 
V:1
"^Prelude" e2 | (B3 c) A2 e2 | (B3 c) A2 [Af]2 | [Ae]4 [Ge]4 | A4!ff! [Aea]4 || %5
w: ~|~ * ~ ~|~ * ~ ~|~ ~|1.~Mer- ry,|
w: ~|~ * ~ ~|~ * ~ ~|~ ~|2.~In a|
w: ~|~ * ~ ~|~ * ~ ~|~ ~|3.~Let the|
!f! [CE]3 [CE] [^B,F]2 [B,F]2 | [CE]2 [CA]2 [Cc]4 | [Dc]3 [DB] [DF]2 [DG]2 | [CB]2 [CA]2 [CE]4 | %9
w: ry chim- ing bells,|Clear and sweet|their car- ol swells,|Joy- ful news|
w: ger far a- way,|Once the in-|fant Sav- ior lay;|We will sing|
w: ious tid- ings fly,|An- gels sing,|and earth re- ply;|Glo- ry be|
 [CE]3 [CE] [CF]2 [CE]2 | [B,E]2 [EG]2 [EB]4 | [Ee]2 [EB]2 [EA]2 [EG]2 | [^DF]4 E4!ff! || %13
w: their mu- sic tells,|Glo- ry in|the high- est: *||
w: His birth to- day,|Glo- ry in|the high- est: Glo-|ry be|
w: to God on high!|Glo- ry in|the high- est: *||
"^Refrain" [Gd]3 [Gd] [Ac]2 [A^B]2 | [Ac]2 [EA]2 (G2 F2) | [CE]2 [EA]2 [Ad]2 [Ac]2 | (A2 G2) A4 || %17
w: ||||
w: God on high, Glo-|ry in the *|est. * * *||
w: ||||
V:2
 x2 | E6 x2 | E6 x2 | x8 | A4 x4 || x8 | x8 | x8 | x8 | x8 | x8 | x8 | x4 E4 || x8 | x4 ^B,4 | x8 | %16
w: |~|~||mer-||||||||||||
w: |~|~||man-||||||||to||high-||
w: |~|~||glor-||||||||||||
 B4 A4 || %17
w: |
w: |
w: |
V:3
 z2 | [G,D]4 [A,C]2 z2 | [G,D]4 [A,C]2 [^D,^B,]2 | [E,C]4 [E,D]4 | [A,C]4 [A,,E,C]4 || %5
 [A,,E,]3 [A,,E,] [A,,^D,]2 [A,,D,]2 | [A,,E,]2 [A,,E,]2 [A,,E,]4 | %7
 [A,,E,G,]3 [A,,E,G,] [A,,E,G,]2 [A,,E,G,]2 | [A,,E,]2 [A,,E,]2 [A,,E,]4 | %9
 [^A,,=G,]3 [A,,G,] [A,,G,]2 [A,,G,]2 | [B,,G,]2 [B,,B,]2 [B,,G,]4 | %11
 [B,,G,]2 [B,,G,]2 [B,,C]2 [B,,B,]2 | [B,,A,]4 [E,G,]4 || [E,B,]3 [E,B,] [E,C]2 [E,^D]2 | %14
 [E,E]2 [E,C]2 [^D,A,]4 | [E,A,]2 [E,C]2 [E,F]2 [E,E]2 | [E,D]4 [A,C]4 || %17

